X: 2416
T: GRAPE VINE TWIST
R: Sand Jig.
%R: _
B: James Kerr "Merry Melodies" v.2 p.47 #416
Z: 2016 John Chambers <jc:trillian.mit.edu>
M: C
L: 1/8
%%slurgraces yes
%%graceslurs yes
K: G
|: G !segno!|\
{A}BGEG (DE)D2 | {B}cABG (EG)G2 |\
{A}BGEG (DE)D2 |[1 B,A,G,B, DG2 :|[2 AGBd g2z2 H|]
|:\
(vBd) zvd edg2 | (vBd) zd uedBG |\
[1 (uBd) zud vedg2 | gedB AGG2 :|\
[2 (Bd) zd edef | gedB AGF"_D.S."A |]
